icons/svg/icons8/bread.svg

<svg width="26" height="26" viewBox="0 0 26 26" fill="none" xmlns="http://www.w3.org/2000/svg">
<path d="M25.1851 1.938C27.4861 4.239 22.7631 9.809 16.3441 16.229C9.92414 22.647 4.27314 27.452 1.94014 25.184C-1.24886 22.084 1.20914 15.959 2.12614 14.501C2.31814 14.195 7.95414 15.768 8.92114 14.897C9.76314 14.139 4.75114 11.584 2.54314 13.334C2.73414 9.967 5.19914 9.677 5.77914 9.194C6.80414 8.341 13.3561 11.596 14.4181 10.417C15.5431 9.167 8.66114 6.612 7.13314 7.938C7.34114 4.48 10.7511 5.209 11.5641 4.438C12.1471 3.884 17.6581 6.554 18.8141 5.563C19.9161 4.619 14.5701 2.721 12.8731 3.357C14.3771 0.751996 16.1201 1.654 16.7941 1.377C20.8541 -0.295004 23.3971 0.148996 25.1851 1.938Z" fill="#333333"/>
</svg>

<?xml version="1.0" encoding="utf-8"?>
<!-- Generator: Adobe Illustrator 15.0.0, SVG Export Plug-In . SVG Version: 6.00 Build 0)  -->
<!DOCTYPE svg PUBLIC "-//W3C//DTD SVG 1.1//EN" "http://www.w3.org/Graphics/SVG/1.1/DTD/svg11.dtd">
<svg version="1.1" id="Layer_1" xmlns="http://www.w3.org/2000/svg" xmlns:xlink="http://www.w3.org/1999/xlink" x="0px" y="0px"
	 width="26px" height="26px" viewBox="0 0 26 26" enable-background="new 0 0 26 26" xml:space="preserve">
<rect fill="none" width="26" height="26"/>
<path fill="#333333" d="M25.185,1.938c2.301,2.301-2.422,7.871-8.841,14.291c-6.42,6.418-12.071,11.223-14.404,8.955
	c-3.189-3.1-0.731-9.225,0.186-10.683c0.192-0.306,5.828,1.267,6.795,0.396c0.842-0.758-4.17-3.313-6.378-1.563
	c0.191-3.367,2.656-3.657,3.236-4.14c1.025-0.853,7.577,2.402,8.639,1.223c1.125-1.25-5.757-3.805-7.285-2.479
	c0.208-3.458,3.618-2.729,4.431-3.5c0.583-0.554,6.094,2.116,7.25,1.125c1.102-0.944-4.244-2.842-5.941-2.206
	c1.504-2.605,3.247-1.703,3.921-1.98C20.854-0.295,23.397,0.149,25.185,1.938z"/>
</svg>
